X:1
T:Never On Sunday
T:Never on Sunday
T:Manos Hadjidakis
T:Billy Towne
C:Manos Hadjidakis
Z:All Rights Reserved
L:1/8
M:4/4
K:Eb
V:1 treble 
%%MIDI program 4
V:1
 z B,ED EFGA ||"Bb7" B2 BA B2 BA | B2 BA BcAB |"Eb" G8 | z B,ED EFGA |"Bb7" B2 BA B2 BA | %6
w: Oh you can kiss me on a|Mon- day a Mon- day a|Mon- day is ver- y ver- y|good|Or you can kiss me on a|Tues- day a Tues- day a|
 B2 BA GAFG |"Eb" E8 | z B,ED EFGA |"Bb7" B2 BA B2 BA | B2 BA BcAB |"Eb" G8 | z B,ED EFGA | %13
w: Tues- day in fact I wish you|would|or you can kiss me on a|Wednes- day a Thurs- day a|Fri- day and Sat- ur- day is|best|But nev- er nev- er on a|
"Bb7" B2 BA B2 BA | B2 BA GAFG |1"Eb" E8 | z2 B2"C" c2"Bb7" d2 ||2"Eb" E8- | E8!fine! ||"Eb" e8- | %20
w: Sun- day a Sun- day a|Sun- day cause thats my day of|rest|come an- y|rest||day|
 e2 de f2 e2 |"Bb7" d8- | d2 cd e2 d2 |"Fm7" c8- |"Bb7" c2 Bc d2 B2 |"Eb" G8 | %26
w: * and you'll be my|guest|* an- y day you|say|* but my day of|rest|
 z2 B2"C" c2"Bb7" d2 |"Eb" e8- | e2 de f2 e2 |"Bb7" d8- | d2 cd e2 d2 |"Fm7" c8- | %32
w: just name the|day|* that you like the|best|* on- ly stay a-|way|
 c2"Bb7" Bc d2 B2 |"Eb" E8 | z B,ED EFGA!D.S.! |] %35
w: * on my day of|rest|Oh you can kiss me on a|

